icons/checklist.svg

<svg
  xmlns="http://www.w3.org/2000/svg"
  width="24"
  height="24"
  viewBox="0 0 24 24"
  fill="none"
  stroke="currentColor"
  stroke-width="2"
  stroke-linecap="round"
  stroke-linejoin="round"
>
  <path d="M11 18h10m-17.5-.5L5 19l2.5-2.5M11 12h10m-17.5-.5L5 13l2.5-2.5M11 6h10M3.5 5.5L5 7l2.5-2.5" />
</svg>

<svg
  xmlns="http://www.w3.org/2000/svg"
  width="24"
  height="24"
  viewBox="0 0 24 24"
  fill="none"
  stroke="currentColor"
  stroke-width="2"
  stroke-linecap="round"
  stroke-linejoin="round"
>
  <path d="M11 18H21M3.5 17.5L5 19L7.5 16.5M11 12H21M3.5 11.5L5 13L7.5 10.5M11 6H21M3.5 5.5L5 7L7.5 4.5" />
</svg>
